Newaita-dark/apps/22/hp-logo.svg

<?xml version="1.0" encoding="UTF-8"?>
<svg xmlns="http://www.w3.org/2000/svg" xmlns:xlink="http://www.w3.org/1999/xlink" width="22pt" height="22pt" viewBox="0 0 22 22" version="1.1">
<defs>
<linearGradient id="linear0" gradientUnits="userSpaceOnUse" x1="254" y1="233.5" x2="254" y2="254.666672" gradientTransform="matrix(0.0429729,0,0,0.0429729,-0.00000262285,9.239165)">
<stop offset="0" style="stop-color:rgb(0%,0%,0%);stop-opacity:0.27451;"/>
<stop offset="1" style="stop-color:rgb(0%,0%,0%);stop-opacity:0;"/>
</linearGradient>
<radialGradient id="radial0" gradientUnits="userSpaceOnUse" cx="450.908936" cy="189.579361" fx="450.908936" fy="189.579361" r="21.166656" gradientTransform="matrix(0.000000119742,-0.0537161,-0.0966889,-0.0000000698078,36.522014,43.721791)">
<stop offset="0" style="stop-color:rgb(0%,0%,0%);stop-opacity:0.313725;"/>
<stop offset="0.222222" style="stop-color:rgb(0%,0%,0%);stop-opacity:0.27451;"/>
<stop offset="1" style="stop-color:rgb(0%,0%,0%);stop-opacity:0;"/>
</radialGradient>
<radialGradient id="radial1" gradientUnits="userSpaceOnUse" cx="450.908936" cy="189.579361" fx="450.908936" fy="189.579361" r="21.166656" gradientTransform="matrix(-0.000000119742,0.0537161,0.0966889,0.0000000698078,-14.578108,-5.175142)">
<stop offset="0" style="stop-color:rgb(0%,0%,0%);stop-opacity:0.313725;"/>
<stop offset="0.222222" style="stop-color:rgb(0%,0%,0%);stop-opacity:0.27451;"/>
<stop offset="1" style="stop-color:rgb(0%,0%,0%);stop-opacity:0;"/>
</radialGradient>
<radialGradient id="radial2" gradientUnits="userSpaceOnUse" cx="450.908936" cy="189.579361" fx="450.908936" fy="189.579361" r="21.166656" gradientTransform="matrix(-0.000000119742,-0.0537161,0.0966889,-0.0000000698078,-14.578108,43.721791)">
<stop offset="0" style="stop-color:rgb(0%,0%,0%);stop-opacity:0.313725;"/>
<stop offset="0.222222" style="stop-color:rgb(0%,0%,0%);stop-opacity:0.27451;"/>
<stop offset="1" style="stop-color:rgb(0%,0%,0%);stop-opacity:0;"/>
</radialGradient>
<radialGradient id="radial3" gradientUnits="userSpaceOnUse" cx="450.908936" cy="189.579361" fx="450.908936" fy="189.579361" r="21.166656" gradientTransform="matrix(0.000000119742,0.0537161,-0.0966889,0.0000000698078,36.522013,-5.175142)">
<stop offset="0" style="stop-color:rgb(0%,0%,0%);stop-opacity:0.313725;"/>
<stop offset="0.222222" style="stop-color:rgb(0%,0%,0%);stop-opacity:0.27451;"/>
<stop offset="1" style="stop-color:rgb(0%,0%,0%);stop-opacity:0;"/>
</radialGradient>
<linearGradient id="linear1" gradientUnits="userSpaceOnUse" x1="254" y1="233.5" x2="254" y2="-168.666672" gradientTransform="matrix(0.0429729,0,0,0.0429729,0,9.239163)">
<stop offset="0" style="stop-color:rgb(12.941176%,58.823529%,95.294118%);stop-opacity:1;"/>
<stop offset="1" style="stop-color:rgb(25.882353%,64.705882%,96.078431%);stop-opacity:1;"/>
</linearGradient>
<linearGradient id="linear2" gradientUnits="userSpaceOnUse" x1="254" y1="-168.666687" x2="253.999985" y2="233.499969" gradientTransform="matrix(3.779528,0,0,3.779528,0.0000208025,812.598572)">
<stop offset="0" style="stop-color:rgb(87.843137%,87.843137%,87.843137%);stop-opacity:1;"/>
<stop offset="1" style="stop-color:rgb(93.333333%,93.333333%,93.333333%);stop-opacity:1;"/>
</linearGradient>
<linearGradient id="linear3" gradientUnits="userSpaceOnUse" x1="232.370163" y1="183.329132" x2="232.370163" y2="-120.774887" gradientTransform="matrix(3.946018,0,0,3.946018,-36.936954,811.698059)">
<stop offset="0" style="stop-color:rgb(12.941176%,58.823529%,95.294118%);stop-opacity:1;"/>
<stop offset="1" style="stop-color:rgb(25.882353%,64.705882%,96.078431%);stop-opacity:1;"/>
</linearGradient>
</defs>
<g id="surface1">
<path style=" stroke:none;fill-rule:nonzero;fill:url(#linear0);" d="M 3.523438 19.273438 L 18.417969 19.273438 L 18.417969 20.183594 L 3.523438 20.183594 Z M 3.523438 19.273438 "/>
<path style=" stroke:none;fill-rule:nonzero;fill:url(#radial0);" d="M 18.417969 19.273438 L 20.238281 19.273438 L 20.238281 18.363281 L 18.417969 18.363281 Z M 18.417969 19.273438 "/>
<path style=" stroke:none;fill-rule:nonzero;fill:url(#radial1);" d="M 3.523438 19.273438 L 1.707031 19.273438 L 1.707031 20.183594 L 3.523438 20.183594 Z M 3.523438 19.273438 "/>
<path style=" stroke:none;fill-rule:nonzero;fill:url(#radial2);" d="M 3.523438 19.273438 L 1.707031 19.273438 L 1.707031 18.363281 L 3.523438 18.363281 Z M 3.523438 19.273438 "/>
<path style=" stroke:none;fill-rule:nonzero;fill:url(#radial3);" d="M 18.417969 19.273438 L 20.238281 19.273438 L 20.238281 20.183594 L 18.417969 20.183594 Z M 18.417969 19.273438 "/>
<path style=" stroke:none;fill-rule:nonzero;fill:url(#linear1);" d="M 2.5 1.992188 C 2.488281 1.992188 2.476562 1.992188 2.464844 1.992188 C 2.441406 1.992188 2.417969 1.996094 2.398438 2 C 2.363281 2.003906 2.332031 2.011719 2.296875 2.023438 C 2.277344 2.027344 2.253906 2.035156 2.234375 2.042969 C 2.195312 2.0625 2.15625 2.082031 2.121094 2.105469 C 2.101562 2.121094 2.082031 2.132812 2.066406 2.144531 C 2.050781 2.160156 2.035156 2.175781 2.019531 2.191406 C 2.003906 2.207031 1.988281 2.222656 1.972656 2.238281 C 1.96875 2.246094 1.960938 2.253906 1.953125 2.265625 C 1.941406 2.28125 1.929688 2.300781 1.917969 2.320312 C 1.902344 2.347656 1.886719 2.375 1.871094 2.40625 C 1.867188 2.417969 1.863281 2.429688 1.859375 2.4375 C 1.855469 2.449219 1.851562 2.460938 1.851562 2.46875 C 1.847656 2.480469 1.84375 2.492188 1.839844 2.503906 C 1.835938 2.523438 1.832031 2.546875 1.828125 2.570312 C 1.824219 2.582031 1.824219 2.59375 1.824219 2.601562 C 1.820312 2.625 1.820312 2.648438 1.820312 2.671875 L 1.820312 18.589844 C 1.820312 18.96875 2.125 19.273438 2.5 19.273438 L 19.328125 19.273438 C 19.707031 19.273438 20.011719 18.96875 20.011719 18.589844 L 20.011719 2.671875 C 20.011719 2.53125 19.96875 2.398438 19.894531 2.292969 C 19.882812 2.273438 19.871094 2.253906 19.855469 2.238281 C 19.839844 2.222656 19.828125 2.207031 19.8125 2.191406 C 19.796875 2.175781 19.78125 2.160156 19.761719 2.144531 C 19.746094 2.132812 19.730469 2.121094 19.710938 2.105469 C 19.675781 2.082031 19.636719 2.0625 19.59375 2.042969 C 19.574219 2.035156 19.554688 2.027344 19.53125 2.023438 C 19.5 2.011719 19.46875 2.003906 19.433594 2 C 19.410156 1.996094 19.386719 1.992188 19.363281 1.992188 C 19.351562 1.992188 19.339844 1.992188 19.328125 1.992188 Z M 2.5 1.992188 "/>
<path style="fill-rule:nonzero;fill:url(#linear2);stroke-width:11.338583;stroke-linecap:round;stroke-linejoin:round;stroke:rgb(12.941177%,12.941177%,12.941177%);stroke-opacity:1;stroke-miterlimit:4;" d="M 789.845875 175.215918 L 677.845111 497.819344 C 534.580331 590.237152 440.101159 751.367085 440.101159 935.172019 C 440.101159 1141.308393 558.629575 1318.585675 731.784129 1402.758028 L 630.090185 1695.128119 L 930.018609 1695.128119 L 1014.534523 1452.230758 C 1276.671279 1425.433029 1480.059169 1204.867109 1480.059169 935.172019 C 1480.059169 662.384883 1272.204991 440.101159 1005.945507 417.082598 L 1090.11786 175.215918 Z M 789.845875 175.215918 " transform="matrix(0.0113699,0,0,0.0113699,0,0)"/>
<path style=" stroke:none;fill-rule:nonzero;fill:rgb(100%,100%,100%);fill-opacity:0.392157;" d="M 2.5 1.992188 C 2.125 1.992188 1.820312 2.296875 1.820312 2.671875 L 1.820312 2.785156 C 1.820312 2.410156 2.125 2.105469 2.5 2.105469 L 19.328125 2.105469 C 19.707031 2.105469 20.011719 2.410156 20.011719 2.785156 L 20.011719 2.671875 C 20.011719 2.296875 19.707031 1.992188 19.328125 1.992188 Z M 2.5 1.992188 "/>
<path style=" stroke:none;fill-rule:nonzero;fill:rgb(1.176471%,1.176471%,1.176471%);fill-opacity:0.235294;" d="M 2.5 19.273438 C 2.125 19.273438 1.820312 18.96875 1.820312 18.589844 L 1.820312 18.476562 C 1.820312 18.855469 2.125 19.160156 2.5 19.160156 L 19.328125 19.160156 C 19.707031 19.160156 20.011719 18.855469 20.011719 18.476562 L 20.011719 18.589844 C 20.011719 18.96875 19.707031 19.273438 19.328125 19.273438 Z M 2.5 19.273438 "/>
<path style=" stroke:none;fill-rule:nonzero;fill:rgb(12.941177%,12.941177%,12.941177%);fill-opacity:1;" d="M 2.5 1.925781 C 2.089844 1.925781 1.753906 2.261719 1.753906 2.671875 L 1.753906 18.589844 C 1.753906 19.003906 2.089844 19.335938 2.5 19.335938 L 19.328125 19.335938 C 19.742188 19.335938 20.074219 19.003906 20.074219 18.589844 L 20.074219 2.671875 C 20.074219 2.261719 19.742188 1.925781 19.328125 1.925781 Z M 2.5 2.054688 L 19.328125 2.054688 C 19.671875 2.054688 19.945312 2.328125 19.945312 2.671875 L 19.945312 18.589844 C 19.945312 18.933594 19.671875 19.207031 19.328125 19.207031 L 2.5 19.207031 C 2.15625 19.207031 1.882812 18.933594 1.882812 18.589844 L 1.882812 2.671875 C 1.882812 2.328125 2.15625 2.054688 2.5 2.054688 Z M 2.5 2.054688 "/>
<path style="fill-rule:nonzero;fill:url(#linear3);stroke-width:11.338583;stroke-linecap:butt;stroke-linejoin:miter;stroke:rgb(12.941177%,12.941177%,12.941177%);stroke-opacity:1;stroke-miterlimit:4;" d="M 830.729589 334.971609 C 752.741327 560.690939 631.807988 930.36217 558.286014 1134.09362 C 564.126545 1135.811423 569.623515 1135.124302 575.464045 1135.124302 C 607.415183 1134.780741 639.709882 1135.124302 672.004581 1135.124302 C 676.127308 1135.124302 675.783748 1128.940211 677.501551 1126.191726 C 716.323901 1016.939447 760.986782 893.257623 799.809133 784.005344 C 802.214057 777.477692 804.618982 770.262919 807.711027 763.735267 C 827.981104 764.078828 847.90762 763.391707 867.834137 763.735267 C 825.57618 881.920122 778.164814 1016.252326 735.219736 1134.09362 C 740.029584 1135.811423 744.495872 1135.124302 748.962161 1135.124302 C 782.631102 1134.780741 816.300043 1135.467863 849.968984 1135.124302 C 888.104213 1027.589827 932.767094 905.282245 971.245884 797.747769 C 979.491339 775.759889 980.522021 747.587918 966.779596 729.722766 C 937.233383 691.587536 871.613303 685.059884 829.355347 683.342081 C 854.778833 611.537911 912.153457 442.849644 949.258004 334.971609 Z M 1076.718996 699.14587 C 1076.031875 700.863673 1075.344753 705.329961 1074.657632 707.047764 C 999.074295 919.02467 867.834137 1293.50575 781.60042 1535.028869 L 877.453834 1535.028869 C 924.52164 1409.28568 995.982249 1215.861049 1024.497781 1136.154984 C 1066.755738 1135.124302 1108.326573 1135.467863 1150.58453 1134.780741 C 1177.382259 1133.75006 1217.922413 1117.946271 1226.511428 1091.835663 C 1262.241733 991.859522 1297.628477 892.570501 1331.98454 792.250799 C 1337.82507 776.790571 1341.260677 760.299661 1336.794388 744.495872 C 1330.610297 724.225796 1312.401584 709.109128 1292.475068 703.612158 C 1275.297037 698.115188 1257.775445 700.520113 1240.253853 700.176552 C 1186.314835 700.176552 1130.658014 699.489431 1076.718996 699.14587 Z M 1173.259531 762.704586 C 1192.155366 763.048146 1212.425443 762.361025 1229.947034 762.704586 C 1193.873169 866.116333 1156.768621 969.871642 1121.038317 1073.62695 C 1100.76824 1075.001193 1080.154602 1073.62695 1059.884525 1073.62695 C 1096.645512 970.902324 1133.062938 867.834137 1169.823925 764.765949 C 1170.511046 764.078828 1170.854607 763.048146 1173.259531 762.704586 Z M 1173.259531 762.704586 " transform="matrix(0.0113699,0,0,0.0113699,0,0)"/>
</g>
</svg>

<svg xmlns="http://www.w3.org/2000/svg" width="22pt" height="22pt" viewBox="0 0 22 22"><defs><linearGradient id="a" gradientUnits="userSpaceOnUse" x1="254" y1="233.5" x2="254" y2="254.667" gradientTransform="matrix(.04297 0 0 .04297 0 9.24)"><stop offset="0" stop-opacity=".275"/><stop offset="1" stop-opacity="0"/></linearGradient><radialGradient id="b" gradientUnits="userSpaceOnUse" cx="450.909" cy="189.579" fx="450.909" fy="189.579" r="21.167" gradientTransform="matrix(0 -.05372 -.09669 0 36.522 43.722)"><stop offset="0" stop-opacity=".314"/><stop offset=".222" stop-opacity=".275"/><stop offset="1" stop-opacity="0"/></radialGradient><radialGradient id="c" gradientUnits="userSpaceOnUse" cx="450.909" cy="189.579" fx="450.909" fy="189.579" r="21.167" gradientTransform="matrix(0 .05372 .09669 0 -14.578 -5.175)"><stop offset="0" stop-opacity=".314"/><stop offset=".222" stop-opacity=".275"/><stop offset="1" stop-opacity="0"/></radialGradient><radialGradient id="d" gradientUnits="userSpaceOnUse" cx="450.909" cy="189.579" fx="450.909" fy="189.579" r="21.167" gradientTransform="matrix(0 -.05372 .09669 0 -14.578 43.722)"><stop offset="0" stop-opacity=".314"/><stop offset=".222" stop-opacity=".275"/><stop offset="1" stop-opacity="0"/></radialGradient><radialGradient id="e" gradientUnits="userSpaceOnUse" cx="450.909" cy="189.579" fx="450.909" fy="189.579" r="21.167" gradientTransform="matrix(0 .05372 -.09669 0 36.522 -5.175)"><stop offset="0" stop-opacity=".314"/><stop offset=".222" stop-opacity=".275"/><stop offset="1" stop-opacity="0"/></radialGradient><linearGradient id="f" gradientUnits="userSpaceOnUse" x1="254" y1="233.5" x2="254" y2="-168.667" gradientTransform="matrix(.04297 0 0 .04297 0 9.24)"><stop offset="0" stop-color="#2196f3"/><stop offset="1" stop-color="#42a5f5"/></linearGradient><linearGradient id="g" gradientUnits="userSpaceOnUse" x1="254" y1="-168.667" x2="254" y2="233.5" gradientTransform="matrix(3.77953 0 0 3.77953 0 812.599)"><stop offset="0" stop-color="#e0e0e0"/><stop offset="1" stop-color="#eee"/></linearGradient><linearGradient id="h" gradientUnits="userSpaceOnUse" x1="232.37" y1="183.329" x2="232.37" y2="-120.775" gradientTransform="matrix(3.94602 0 0 3.94602 -36.937 811.698)"><stop offset="0" stop-color="#2196f3"/><stop offset="1" stop-color="#42a5f5"/></linearGradient></defs><path d="M3.523 19.273h14.895v.91H3.523zm0 0" fill="url(#a)"/><path d="M18.418 19.273h1.82v-.91h-1.82zm0 0" fill="url(#b)"/><path d="M3.523 19.273H1.707v.91h1.816zm0 0" fill="url(#c)"/><path d="M3.523 19.273H1.707v-.91h1.816zm0 0" fill="url(#d)"/><path d="M18.418 19.273h1.82v.91h-1.82zm0 0" fill="url(#e)"/><path d="M2.5 1.992h-.035A.344.344 0 0 0 2.398 2a.477.477 0 0 0-.101.023.384.384 0 0 0-.063.02c-.039.02-.078.039-.113.062-.02.016-.039.028-.055.04l-.046.046-.047.047c-.004.008-.012.016-.02.028-.012.015-.023.035-.035.054l-.047.086a.27.27 0 0 1-.012.031c-.004.012-.007.024-.007.032l-.012.035a2.23 2.23 0 0 0-.012.066c-.004.012-.004.024-.004.032-.004.023-.004.046-.004.07V18.59c0 .379.305.683.68.683h16.828a.682.682 0 0 0 .684-.683V2.672a.66.66 0 0 0-.117-.379c-.012-.02-.024-.04-.04-.055-.015-.015-.027-.031-.043-.047-.015-.015-.03-.03-.05-.046l-.051-.04a.826.826 0 0 0-.117-.062.293.293 0 0 0-.063-.02.397.397 0 0 0-.097-.023c-.024-.004-.047-.008-.07-.008h-.036zm0 0" fill="url(#f)"/><path d="M789.846 175.216l-112 322.603C534.58 590.237 440.1 751.367 440.1 935.172c0 206.136 118.529 383.414 291.683 467.586l-101.694 292.37H930.02l84.516-242.897c262.136-26.798 465.524-247.364 465.524-517.059 0-272.787-207.854-495.07-474.113-518.09l84.172-241.866zm0 0" transform="rotate(.24) scale(.01137)" fill="url(#g)" stroke-width="11.339" stroke-linecap="round" stroke-linejoin="round" stroke="#212121"/><path d="M2.5 1.992a.68.68 0 0 0-.68.68v.113a.68.68 0 0 1 .68-.68h16.828c.379 0 .684.305.684.68v-.113a.681.681 0 0 0-.684-.68zm0 0" fill="#fff" fill-opacity=".392"/><path d="M2.5 19.273a.681.681 0 0 1-.68-.683v-.113c0 .378.305.683.68.683h16.828a.682.682 0 0 0 .684-.683v.113a.682.682 0 0 1-.684.683zm0 0" fill="#030303" fill-opacity=".235"/><path d="M2.5 1.926a.749.749 0 0 0-.746.746V18.59c0 .414.336.746.746.746h16.828a.744.744 0 0 0 .746-.746V2.672a.746.746 0 0 0-.746-.746zm0 .129h16.828c.344 0 .617.273.617.617V18.59a.614.614 0 0 1-.617.617H2.5a.614.614 0 0 1-.617-.617V2.672c0-.344.273-.617.617-.617zm0 0" fill="#212121"/><path d="M830.73 334.972c-77.989 225.719-198.922 595.39-272.444 799.122 5.84 1.717 11.338 1.03 17.178 1.03 31.951-.343 64.246 0 96.54 0 4.123 0 3.78-6.184 5.498-8.932 38.822-109.253 83.485-232.934 122.307-342.187 2.405-6.527 4.81-13.742 7.902-20.27 20.27.344 40.197-.343 60.123 0-42.258 118.185-89.67 252.517-132.614 370.359 4.81 1.717 9.276 1.03 13.742 1.03 33.67-.343 67.338.344 101.007 0 38.135-107.534 82.798-229.842 121.277-337.376 8.245-21.988 9.276-50.16-4.466-68.025-29.547-38.135-95.167-44.663-137.425-46.38 25.424-71.805 82.798-240.493 119.903-348.371zm245.989 364.174c-.687 1.718-1.374 6.184-2.061 7.902-75.584 211.977-206.824 586.458-293.058 827.98h95.854c47.068-125.742 118.528-319.167 147.044-398.873 42.258-1.03 83.829-.687 126.087-1.374 26.797-1.03 67.337-16.835 75.926-42.945 35.73-99.976 71.117-199.265 105.474-299.585 5.84-15.46 9.276-31.951 4.81-47.755-6.185-20.27-24.393-35.387-44.32-40.884-17.178-5.497-34.7-3.092-52.221-3.435-53.94 0-109.596-.688-163.535-1.031zm96.54 63.559c18.896.343 39.166-.344 56.688 0-36.074 103.411-73.178 207.167-108.909 310.922-20.27 1.374-40.883 0-61.153 0 36.76-102.725 73.178-205.793 109.939-308.861.687-.687 1.03-1.718 3.436-2.061zm0 0" transform="rotate(.24) scale(.01137)" fill="url(#h)" stroke-width="11.339" stroke="#212121"/></svg>
